X: 42378
T: Well-Bred Foal, The
R: reel
M: 4/4
K: Bdorian
|:f2 ef dB~B2|Bcde f2 fa|edcB ABcd|edcB ABcd|
e2 ae cB~B2|Bcde f2 fg|aA (3AAA ABce|f2 ef dB~B2:|
|:bafe defg|afbf a2 fa|bafe defg|afea fB B2|
bafe defg|afbf a2 af|e2 fa bafb|afe=g fB B2:|

